frontend/src/assets/Cody_Accueil.svg

<svg width="372" height="314" viewBox="0 0 372 314" fill="none" xmlns="http://www.w3.org/2000/svg">
<path d="M49.6 252.6C29.6 252.6 18.6 244.2 18.6 220.4V184.8C18.6 176 15.6 171.8 4.8 171.4V158C15 157.6 18.6 153.4 18.6 144.6V109.8C18.6 86 29.6 78.2 49.6 78.2H53.2V91.4H50C39.6 91.4 35.4 95.4 35.4 110V145.8C35.4 156 32 162 24.2 164.4V165C32 167.4 35.4 173.4 35.4 183.6V220.2C35.4 234.8 39.6 238.8 50 238.8H53.2V252.6H49.6Z" fill="#FFFFF0"/>
<path d="M118.6 176.4C102.8 176.4 89.4 164.2 89.4 148.4C89.4 132.6 102.8 120 118.6 120C134.6 120 147.8 132.6 147.8 148.4C147.8 164.2 134.6 176.4 118.6 176.4ZM118.6 163.8C127.6 163.8 133.4 157 133.4 148.4C133.4 139.8 127.6 132.6 118.6 132.6C109.6 132.6 104 139.8 104 148.4C104 157 109.6 163.8 118.6 163.8Z" fill="#FFFFF0"/>
<path d="M75.6 113.4L107.2 56H130.2L161.8 113.4H137L119 79.6H118.6L100 113.4H75.6Z" fill="#FFFFF0"/>
<path d="M237.7 215.5C219.4 227.35 197.95 236.05 169.75 236.05C143.65 236.05 122.5 226.45 106.9 215.5L106.9 207.4C123.4 217.45 145.15 225.4 169.75 225.4C196.3 225.4 217.6 219.1 237.7 207.4L237.7 215.5Z" fill="#FFFFF0"/>
<path d="M205.686 87.7489L261.752 53.8391L281.671 65.3391L280.337 130.849L258.86 118.449L260.171 80.1773L259.825 79.9773L226.817 99.9489L205.686 87.7489Z" fill="#FFFFF0"/>
<path d="M221.321 176.89C205.521 176.89 192.121 164.69 192.121 148.89C192.121 133.09 205.521 120.49 221.321 120.49C237.321 120.49 250.521 133.09 250.521 148.89C250.521 164.69 237.321 176.89 221.321 176.89ZM221.321 164.29C230.321 164.29 236.121 157.49 236.121 148.89C236.121 140.29 230.321 133.09 221.321 133.09C212.321 133.09 206.721 140.29 206.721 148.89C206.721 157.49 212.321 164.29 221.321 164.29Z" fill="#FFFFF0"/>
<path d="M318 252.6V238.8H321.2C331.6 238.8 335.8 235.4 335.8 220.8V184.2C335.8 174 339.2 168 347 165.6V165C339.2 162.6 335.8 156.6 335.8 146.4V110.6C335.8 96 331.6 91.4 321.2 91.4H318V78.2H321.6C341.6 78.2 352.6 86.6 352.6 110.4V145.2C352.6 154 355.6 158.2 366.4 158.6V172C356.2 172.4 352.6 176.6 352.6 185.4V221C352.6 244.8 341.6 252.6 321.6 252.6H318Z" fill="#FFFFF0"/>
</svg>

<svg xmlns="http://www.w3.org/2000/svg" width="372" height="314" fill="none"><path fill="ivory" d="M49.6 252.6c-20 0-31-8.4-31-32.2v-35.6c0-8.8-3-13-13.8-13.4V158c10.2-.4 13.8-4.6 13.8-13.4v-34.8c0-23.8 11-31.6 31-31.6h3.6v13.2H50c-10.4 0-14.6 4-14.6 18.6v35.8c0 10.2-3.4 16.2-11.2 18.6v.6c7.8 2.4 11.2 8.4 11.2 18.6v36.6c0 14.6 4.2 18.6 14.6 18.6h3.2v13.8zM118.6 176.4c-15.8 0-29.2-12.2-29.2-28s13.4-28.4 29.2-28.4c16 0 29.2 12.6 29.2 28.4s-13.2 28-29.2 28m0-12.6c9 0 14.8-6.8 14.8-15.4s-5.8-15.8-14.8-15.8-14.6 7.2-14.6 15.8 5.6 15.4 14.6 15.4M75.6 113.4 107.2 56h23l31.6 57.4H137l-18-33.8h-.4L100 113.4zM237.7 215.5c-18.3 11.85-39.75 20.55-67.95 20.55-26.1 0-47.25-9.6-62.85-20.55v-8.1c16.5 10.05 38.25 18 62.85 18 26.55 0 47.85-6.3 67.95-18zM205.686 87.749l56.066-33.91 19.919 11.5-1.334 65.51-21.477-12.4 1.311-38.272-.346-.2-33.008 19.972zM221.321 176.89c-15.8 0-29.2-12.2-29.2-28s13.4-28.4 29.2-28.4c16 0 29.2 12.6 29.2 28.4s-13.2 28-29.2 28m0-12.6c9 0 14.8-6.8 14.8-15.4s-5.8-15.8-14.8-15.8-14.6 7.2-14.6 15.8 5.6 15.4 14.6 15.4M318 252.6v-13.8h3.2c10.4 0 14.6-3.4 14.6-18v-36.6c0-10.2 3.4-16.2 11.2-18.6v-.6c-7.8-2.4-11.2-8.4-11.2-18.6v-35.8c0-14.6-4.2-19.2-14.6-19.2H318V78.2h3.6c20 0 31 8.4 31 32.2v34.8c0 8.8 3 13 13.8 13.4V172c-10.2.4-13.8 4.6-13.8 13.4V221c0 23.8-11 31.6-31 31.6z"/></svg>
